X: 1
T: Croatia
C: Charlene E Thomson - Jun 13, 2010
R: waltz
Z: 2012 John Chambers <jc:trillian.mit.edu>
S: printed MS of unknown origin
M: 3/4
L: 1/8
K: Dm
[|"Dm"A3 B A^G | "Dm"A2 G2 F2 | "A"F2 E3 ^D | "A"E6 |\
"A7"G3 A GF | "A7"E2 F2 G2 | "Gm"B2 "Dm"A3 ^G | "Dm"A6 |
"D"d2 c2 A2 | "D7"d2 c2 A2 | "Gm"G3 ^F GA | "Gm"B4 c2 |\
"Dm"d2 A2 F2 | "A7"G3 F EA | "Dm"D6- | D4 |]
E2 |\
"D"^FF F2 G2 | "D"A2 G2 ^F2 | "A7"EE E2 F2 | "A7"G6 |\
"A7"^c2 =B3 G | "A7"^c2 =B3 G | "D"^FF F2 G2 | "D"A6 |
"D"d2 d3 _e | "D7"d2 c2 A2 | "Gm"G3 ^F GA | "Gm"B4 c2 |\
"Dm"d2 A2 F2 | "A7"GF E2 A2 | "Dm"D6- | D4 z2 |]
